X: 19434
T: Jackson's
R: reel
M: 4/4
K: Eminor
efed B2dB|(3ABA GB AFGF|1 EFGA BF{G}F2|ABdf eB{d}B2:|2 EFGA Beef|(3gfe fd Bee2||
efed Bdeg|fd{e}dc dfaf|gfed Bcde|dBAc BE{G}E2|
gbef gbeg|(3faf de (3faf de|bg (3agf gfef|~g3f efgf||

